X:1
T:From North and South and East and West
T:Arthur Seymour Sullivan, 1874
T:From North and South and East and West
T:Public Domain
T:Public Domain
C:Arthur Seymour Sullivan, 1874
Z:Public Domain
%%score ( 1 2 ) 3
L:1/8
M:4/4
K:Eb
V:1 treble 
V:2 treble 
V:3 bass 
V:1
 [GB]4 [GB]2 [GB]2 | [GB]6 [GB]2 | [FA]4 [EG]4 | [DF]8 | [Ac]4 [Ac]2 [Ac]2 | [Ac]6 [Ac]2 | %6
w: 1.~From north and|south and|east and|west,|When shall the|peo- ples,|
w: 2.~When shall the|climes of|age- less|snow|Be with the|Gos- pel|
w: 3.~When on each|south- ern|balm- y|coast,|Shall ran- somed|men, in|
w: 4.~O when in|all the|Or- ient|lands,|From ci- ties|white, and|
w: 5.~O when shall|heath- en|dark- ness|roll|A- way in|light, from|
w: 6.~Bring, Lord, the|long pre-|dict- ed|hour,|The ag- es’|di- a-|
 [GB]4 [FA]4 | [EG]6 [Ee]2 | [Ee]6 [Ee]2 | [Fe]4 [Fd]4 | [Ec]4 [=EB]4 | [FA]8 | [=EG]8 | %13
w: long un-|blest, All|find their|ev- er-|last- ing|rest,|O|
w: light a-|glow, And|all men|their Re-|deem- er|know,|O|
w: count- less|host, Rise,|heart and|voice, to|make sweet|boast,|O|
w: flam- ing|sands, Shall|men lift|ded- i-|cat- ed|hands,|O|
w: pole to|pole, And|end- less|day by|ev- ery|soul|Be|
w: dem and|flower, When|all shall|find their|re- fuge,|tower,|And|
 [DA]4 [DF]4 | E8 |] %15
w: Christ, in|Thee?|
w: Christ, in|Thee?|
w: Christ, in|Thee?|
w: Christ, in|Thee?|
w: found in|Thee?|
w: home in|Thee!|
V:2
 x8 | x8 | x8 | x8 | x8 | x8 | x8 | x8 | x8 | x8 | x8 | x8 | x8 | x8 | E8 |] %15
V:3
 [E,B,]4 [E,B,]2 [E,B,]2 | [E,B,]6 [E,B,]2 | [F,B,]4 [G,B,]4 | [A,B,]8 | [B,,D]4 [B,,D]2 [B,,D]2 | %5
 [B,,D]6 [B,,D]2 | [C,E]4 [D,B,]4 | [E,B,]6 [G,B,]2 | [G,B,]6 [G,B,]2 | [G,=B,]4 [G,B,]4 | %10
 [A,C]4 C4 | [F,C]8 | [B,,B,]8 | [B,,F,]4 [B,,A,]4 | [E,G,]8 |] %15

